Suru++-Ubuntu/mimetypes/scalable/text-plain.svg

<svg width="256" height="256" version="1.1" viewBox="0 0 67.73 67.73" xmlns="http://www.w3.org/2000/svg" xmlns:xlink="http://www.w3.org/1999/xlink">
 <defs>
  <linearGradient id="linearGradient4226" x1="529.655" x2="-35.31" y1="401.584" y2="119.093" gradientTransform="matrix(0 -.11988932 .11988589 0 .36278065 292.5483)" gradientUnits="userSpaceOnUse">
   <stop style="stop-color:#f2f2f2" offset="0"/>
   <stop style="stop-color:#f9f9f9" offset="1"/>
  </linearGradient>
  <linearGradient id="linearGradient4358" x1="88" x2="488" y1="88" y2="488" gradientUnits="userSpaceOnUse">
   <stop style="stop-color:#000000;stop-opacity:.58823532" offset="0"/>
   <stop style="stop-color:#000000;stop-opacity:0" offset=".88"/>
   <stop style="stop-color:#000000" offset="1"/>
  </linearGradient>
  <filter id="filter4346" x="-.01" y="-.01" width="1.026" height="1.022" style="color-interpolation-filters:sRGB">
   <feGaussianBlur stdDeviation="2.12"/>
  </filter>
 </defs>
 <g transform="translate(0,-229.26665)">
  <path d="m20.705011 233.28164c-9.338925 0-10.343783 0.95922-10.298012 10.31704v38.63259c-0.04577 9.35781 0.959087 10.31704 10.298012 10.31704h25.970643c9.338924 0 10.298012-0.95912 10.298012-10.31704v-38.63259c0-9.35793-0.959088-10.31704-10.298012-10.31704z" style="fill:none;opacity:.2;stroke-width:1.0583333;stroke:#000000"/>
  <path transform="matrix(.13229167 0 0 .13229167 -4.4096684 223.75664)" d="m189.84323 74c-70.59344 0-78.18921 7.250835-77.84323 77.98706v292.02588c-0.34598 70.73623 7.24979 77.98706 77.84323 77.98706h196.31354c70.59344 0 76.00668-7.27384 77.84323-77.98706v-292.02588c0-70.737067-7.24979-77.98706-77.84323-77.98706z" style="filter:url(#filter4346);opacity:.1"/>
  <path transform="matrix(.13229167 0 0 .13229167 -4.4096684 223.75664)" d="m189.84323 74c-70.59344 0-78.18921 7.250835-77.84323 77.98706v292.02588c-0.34598 70.73623 7.24979 77.98706 77.84323 77.98706h196.31354c70.59344 0 77.84323-7.24999 77.84323-77.98706v-292.02588c0-70.737067-7.24979-77.98706-77.84323-77.98706z" style="fill:url(#linearGradient4358);filter:url(#filter4380);opacity:.3"/>
  <path d="m20.705011 233.28164c-9.338925 0-10.343783 0.95922-10.298012 10.31704v38.63259c-0.04577 9.35781 0.959087 10.31704 10.298012 10.31704h25.970643c9.338924 0 10.298012-0.95912 10.298012-10.31704v-38.63259c0-9.35793-0.959088-10.31704-10.298012-10.31704z" style="fill:url(#linearGradient4226)"/>
  <path d="m20.705079 233.28164c-9.338926 0-10.343851 0.95939-10.29808 10.3172v0.52916c-0.04577-9.35781 0.959154-10.3172 10.29808-10.3172h25.970506c9.338927 0 10.298081 0.95928 10.298081 10.3172v-0.52916c0-9.35793-0.959154-10.3172-10.298081-10.3172z" style="fill:#ffffff;opacity:.6"/>
  <path d="m18.873665 263.97331h29.633334v1.05833h-29.633334z" style="fill:#999999"/>
  <path d="m18.873665 267.14831h29.633334v1.05833h-29.633334z" style="fill:#999999"/>
  <path d="m18.873665 270.32331h29.633334v1.05833h-29.633334z" style="fill:#999999"/>
  <path d="m18.873665 273.49831h14.816667v1.05833h-14.816667z" style="fill:#999999"/>
  <path d="m18.873665 254.4483h29.633334v1.05834h-29.633334z" style="fill:#999999"/>
  <path d="m18.873665 257.62331h29.633334v1.05833h-29.633334z" style="fill:#999999"/>
  <path d="m18.873665 260.79831h29.633334v1.05833h-29.633334z" style="fill:#999999"/>
  <path d="m18.873665 251.2733h29.633334v1.05834h-29.633334z" style="fill:#999999"/>
  <path d="m33.690332 233.28164v59.26667h12.985253c9.338924 0 10.055122-0.96217 10.298081-10.31695v-38.63278c0-9.35792-0.959157-10.31694-10.298081-10.31694z" style="fill:#ffffff;opacity:.1"/>
  <path d="m10.406999 262.91497v19.31639c-0.04577 9.35782 0.959155 10.31695 10.29808 10.31695h25.970506c9.338924 0 10.055122-0.96217 10.298081-10.31695v-19.31639z" style="fill:#ffffff;opacity:.2"/>
  <path d="m41.098666 292.54831 15.875-15.875v5.94886c-0.01384 8.99472-1.006126 9.92614-10.100231 9.92614z" style="fill:#ffffff;opacity:.4"/>
 </g>
</svg>

<svg xmlns="http://www.w3.org/2000/svg" xmlns:xlink="http://www.w3.org/1999/xlink" width="256" height="256" version="1.1" viewBox="0 0 67.73 67.73">
 <defs>
  <linearGradient id="linearGradient4226" x1="529.655" x2="-35.31" y1="401.584" y2="119.093" gradientTransform="matrix(0,-0.11988932,0.11988589,0,0.36278065,292.5483)" gradientUnits="userSpaceOnUse" xlink:href="#linearGradient4338"/>
  <linearGradient id="linearGradient4338">
   <stop offset="0" style="stop-color:#f2f2f2"/>
   <stop offset="1" style="stop-color:#f9f9f9"/>
  </linearGradient>
  <linearGradient id="linearGradient4358" x1="88" x2="488" y1="88" y2="488" gradientUnits="userSpaceOnUse" xlink:href="#linearGradient4360"/>
  <linearGradient id="linearGradient4360">
   <stop style="stop-color:#000000;stop-opacity:0.58823532" offset="0"/>
   <stop offset=".88" style="stop-color:#000000;stop-opacity:0"/>
   <stop style="stop-color:#000000" offset="1"/>
  </linearGradient>
  <filter id="filter4346" width="1.026" height="1.022" x="-.01" y="-.01" style="color-interpolation-filters:sRGB">
   <feGaussianBlur stdDeviation="2.12"/>
  </filter>
 </defs>
 <g transform="translate(0,-229.26665)">
  <path style="opacity:0.2;fill:none;stroke:#000000;stroke-width:1.05833328" d="m 20.705011,233.28164 c -9.338925,0 -10.343783,0.95922 -10.298012,10.31704 v 19.31629 19.3163 c -0.04577,9.35781 0.959087,10.31704 10.298012,10.31704 h 25.970643 c 9.338924,0 10.298012,-0.95912 10.298012,-10.31704 v -19.3163 -19.31629 c 0,-9.35793 -0.959088,-10.31704 -10.298012,-10.31704 z"/>
  <path d="M 189.84323,74 C 119.24979,74 111.65402,81.250835 112,151.98706 V 298 444.01294 C 111.65402,514.74917 119.24979,522 189.84323,522 H 386.15677 C 456.75021,522 462.16345,514.72616 464,444.01294 V 298 151.98706 C 464,81.249993 456.75021,74 386.15677,74 Z" transform="matrix(0.13229167,0,0,0.13229167,-4.4096684,223.75664)" style="opacity:0.1;filter:url(#filter4346)"/>
  <path style="opacity:0.3;fill:url(#linearGradient4358);filter:url(#filter4380)" d="M 189.84323,74 C 119.24979,74 111.65402,81.250835 112,151.98706 V 298 444.01294 C 111.65402,514.74917 119.24979,522 189.84323,522 H 386.15677 C 456.75021,522 464,514.75001 464,444.01294 V 298 151.98706 C 464,81.249993 456.75021,74 386.15677,74 Z" transform="matrix(0.13229167,0,0,0.13229167,-4.4096684,223.75664)"/>
  <path d="m 20.705011,233.28164 c -9.338925,0 -10.343783,0.95922 -10.298012,10.31704 v 19.31629 19.3163 c -0.04577,9.35781 0.959087,10.31704 10.298012,10.31704 h 25.970643 c 9.338924,0 10.298012,-0.95912 10.298012,-10.31704 v -19.3163 -19.31629 c 0,-9.35793 -0.959088,-10.31704 -10.298012,-10.31704 z" style="fill:url(#linearGradient4226)"/>
  <path d="m 20.705079,233.28164 c -9.338926,0 -10.343851,0.95939 -10.29808,10.3172 v 0.52916 c -0.04577,-9.35781 0.959154,-10.3172 10.29808,-10.3172 h 25.970506 c 9.338927,0 10.298081,0.95928 10.298081,10.3172 v -0.52916 c 0,-9.35793 -0.959154,-10.3172 -10.298081,-10.3172 z" style="opacity:0.6;fill:#ffffff"/>
  <path style="fill:#999999" d="m 18.873665,263.97331 h 29.633334 v 1.05833 H 18.873665 Z"/>
  <path d="m 18.873665,267.14831 h 29.633334 v 1.05833 H 18.873665 Z" style="fill:#999999"/>
  <path style="fill:#999999" d="m 18.873665,270.32331 h 29.633334 v 1.05833 H 18.873665 Z"/>
  <path d="m 18.873665,273.49831 h 14.816667 v 1.05833 H 18.873665 Z" style="fill:#999999"/>
  <path d="m 18.873665,254.4483 h 29.633334 v 1.05834 H 18.873665 Z" style="fill:#999999"/>
  <path style="fill:#999999" d="m 18.873665,257.62331 h 29.633334 v 1.05833 H 18.873665 Z"/>
  <path d="m 18.873665,260.79831 h 29.633334 v 1.05833 H 18.873665 Z" style="fill:#999999"/>
  <path style="fill:#999999" d="m 18.873665,251.2733 h 29.633334 v 1.05834 H 18.873665 Z"/>
  <path d="m 33.690332,233.28164 v 59.26667 h 12.985253 c 9.338924,0 10.055122,-0.96217 10.298081,-10.31695 v -19.31639 -19.31639 c 0,-9.35792 -0.959157,-10.31694 -10.298081,-10.31694 z" style="opacity:0.1;fill:#ffffff"/>
  <path d="m 10.406999,262.91497 v 19.31639 c -0.04577,9.35782 0.959155,10.31695 10.29808,10.31695 h 25.970506 c 9.338924,0 10.055122,-0.96217 10.298081,-10.31695 v -19.31639 z" style="opacity:0.2;fill:#ffffff"/>
  <path d="m 41.098666,292.54831 15.875,-15.875 v 5.94886 c -0.01384,8.99472 -1.006126,9.92614 -10.100231,9.92614 z" style="opacity:0.4;fill:#ffffff"/>
 </g>
</svg>
